icons/blood_vessel_fill.svg

<svg width="48" height="48" viewBox="0 0 48 48" fill="none" xmlns="http://www.w3.org/2000/svg">
<path fill-rule="evenodd" clip-rule="evenodd" d="M17.9996 6V25.3798L15.0743 23.36L15.166 23.3499L14.2005 14.5931L12.2125 14.8123L12.9968 21.9255L6.37998 17.3567L4.87305 23.3844L9.29292 26.8736L5.23806 27.8952L5.72665 29.8346L11.2735 28.4371L17.6221 33.4489L17.6283 33.4537C17.8607 33.6313 17.9996 33.9105 17.9996 34.2095V42H27.9996V27.1135C27.9996 26.7783 28.1896 26.455 28.519 26.2841L33.67 23.6112L41.2632 25.4582L41.736 23.5148L36.2978 22.192L42.2777 18.9437L40.0094 13.651L32.4333 17.2479L33.4762 12.5124L31.523 12.0822L30.143 18.3481L27.9996 19.4295V6H17.9996ZM23.2265 8.84951C23.5179 9.31868 23.3738 9.93522 22.9046 10.2266C22.4354 10.518 21.8189 10.3738 21.5275 9.90467C21.2361 9.4355 21.3803 8.81896 21.8494 8.52759C22.3186 8.23621 22.9352 8.38034 23.2265 8.84951ZM24.9046 14.2266C25.3738 13.9352 25.5179 13.3187 25.2265 12.8495C24.9352 12.3803 24.3186 12.2362 23.8494 12.5276C23.3803 12.819 23.2361 13.4355 23.5275 13.9047C23.8189 14.3738 24.4354 14.518 24.9046 14.2266ZM22.9046 23.2266C23.3738 22.9352 23.5179 22.3187 23.2265 21.8495C22.9352 21.3803 22.3186 21.2362 21.8494 21.5276C21.3803 21.819 21.2361 22.4355 21.5275 22.9047C21.8189 23.3738 22.4354 23.518 22.9046 23.2266ZM24.2265 28.8495C24.5179 29.3187 24.3738 29.9352 23.9046 30.2266C23.4354 30.518 22.8189 30.3738 22.5275 29.9047C22.2361 29.4355 22.3803 28.819 22.8494 28.5276C23.3186 28.2362 23.9352 28.3803 24.2265 28.8495ZM22.9046 39.2266C23.3738 38.9352 23.5179 38.3187 23.2265 37.8495C22.9352 37.3803 22.3186 37.2362 21.8494 37.5276C21.3803 37.819 21.2361 38.4355 21.5275 38.9047C21.8189 39.3738 22.4354 39.518 22.9046 39.2266Z" fill="black"/>
</svg>

<svg
  xmlns="http://www.w3.org/2000/svg"
  width="24"
  height="24"
  viewBox="0 0 24 24"
  fill="none"
  stroke="currentColor"
  stroke-width="2"
  stroke-linecap="round"
  stroke-linejoin="round"
>
  <path
    fill-rule="evenodd"
    d="M18 6v19.38l-2.926-2.02.092-.01-.966-8.757-1.987.22.784 7.112-6.617-4.568-1.507 6.027 4.42 3.49-4.055 1.021.489 1.94 5.547-1.398 6.348 5.012.006.005a.95.95 0 0 1 .372.755V42h10V27.113a.94.94 0 0 1 .519-.829l5.151-2.673 7.593 1.847.473-1.943-5.438-1.323 5.98-3.248-2.269-5.293-7.576 3.597 1.043-4.736-1.953-.43-1.38 6.266L28 19.43V6zm5.227 2.85a1 1 0 1 1-1.7 1.055 1 1 0 0 1 1.7-1.055m1.678 5.377a1 1 0 1 0-1.055-1.7 1 1 0 0 0 1.055 1.7m-2 9a1 1 0 1 0-1.055-1.7 1 1 0 0 0 1.055 1.7m1.322 5.622a1 1 0 1 1-1.7 1.056 1 1 0 0 1 1.7-1.056m-1.322 10.378a1 1 0 1 0-1.055-1.7 1 1 0 0 0 1.055 1.7"
    clip-rule="evenodd"
  />
</svg>
